!!!COM:	Bach, Johann Sebastian
!!!CDT:	1685/02/21/-1750/07/28/
!!!OTL@@DE:	Wir Christenleut
!!!SCT:	BWV 110/7
!!!PC#:	55
!!!AGN:	chorale
**kern	**kern	**kern	**kern
*ICvox	*ICvox	*ICvox	*ICvox
*Ibass	*Itenor	*Ialto	*Isoprn
*I"Bass	*I"Tenor	*I"Alto	*I"Soprano
*>[A,A,B]	*>[A,A,B]	*>[A,A,B]	*>[A,A,B]
*>norep[A,B]	*>norep[A,B]	*>norep[A,B]	*>norep[A,B]
*>A	*>A	*>A	*>A
*clefF4	*clefGv2	*clefG2	*clefG2
*k[f#c#]	*k[f#c#]	*k[f#c#]	*k[f#c#]
*b:	*b:	*b:	*b:
*M4/4	*M4/4	*M4/4	*M4/4
*met(c)	*met(c)	*met(c)	*met(c)
*MM100	*MM100	*MM100	*MM100
4BB	8dL	4f#	8bL
.	8eJ	.	8cc#J
=1	=1	=1	=1
4B	4f#	4b	4dd
4F#	8f#L	4a#	4cc#
.	8eJ	.	.
4BB;	4d;	4f#;	4b;
=:|!	=:|!	=:|!	=:|!
*>B	*>B	*>B	*>B
4D	8AL	8f#L	4ff#
.	8BJ	8gJ	.
=2	=2	=2	=2
4A	4c#	4a	4ee
4B	4B	4f#	4dd
4F#;	4A#;	4f#;	4cc#;
4F#	4A#	4f#	4cc#
=3	=3	=3	=3
4B	8BL	4f#	4dd
.	8c#J	.	.
8BL	4d	4f#	4dd
8AJ	.	.	.
8GL	4d	4b	4ee
8E	.	.	.
8A	4c#	4a	4ee
8GJ	.	.	.
=4	=4	=4	=4
8F#L	4d	4a	4ff#
8E	.	.	.
8D	4d	8aL	4ff#
8C#J	.	8bJ	.
8BBL	4c#	4cc#	4ee
8AA#J	.	.	.
4BB	4B	4f#	4dd
=5	=5	=5	=5
2FF#	4B	4.f#	2cc#
.	4A#	.	.
.	.	8e	.
4BB;	4F#;	4d;	4b;
4BB	4d	4b	4ff#
=6	=6	=6	=6
4C#	4e	8bL	4ee
.	.	8a#J	.
8DL	4f#	4b	4dd
8EJ	.	.	.
4F#;	4f#;	4a#;	4cc#;
4D	4f#	8bL	4ff#
.	.	8aJ	.
=7	=7	=7	=7
4E	4B	4g#	4ee
8F#L	8f#L	8aL	4dd
8G#J	8eJ	8bJ	.
4A;	4e;	4a;	4cc#;
8AL	4e	4a	4cc#
8GJ	.	.	.
=8	=8	=8	=8
4F#	8f#L	8aL	4dd
.	8e	8gJ	.
8BL	8d	4f#	4dd
8AJ	8c#J	.	.
4G#	4B	8bL	4ee
.	.	8aJ	.
8c#L	4e	4g#	4ee
8BJ	.	.	.
=9	=9	=9	=9
4A#	4e	4cc#	4ff#
4d	8dL	8bL	4ff#
.	8c#J	8a#J	.
8G#L	8BL	4b	4ee
8A#J	8c#	.	.
4B	8d	4b	4dd
.	8eJ	.	.
=10	=10	=10	=10
2F#	4.f#	4b	2cc#
.	.	4a#	.
.	8e	.	.
4BB;	4d#;	4f#;	4b;
==	==	==	==
*-	*-	*-	*-
!!!hum2abc: -Q ''
!!!title: @{PC#}. @{OTL@@DE}
!!!YOR1: 371 vierstimmige Choralges&auml;nge von Johann Sebastian Bach, 
!!!YOR2: 4th ed. by Alfred D&ouml;rffel (Leipzig: Breitkopf und H&auml;rtel, 
!!!YOR2: c.1875). 178 pp. Plate "V.A.10".  reprint: J.S. Bach, 371 Four-Part 
!!!YOR4: Chorales (New York: Associated Music Publishers, Inc., c.1940).
!!!SMS: B&H, 4th ed, Alfred D&ouml;rffel, c.1875, plate V.A.10
!!!EED:  Craig Stuart Sapp
!!!EEV:  2009/05/22
